X:69
T:Little Rabbit
M:4/4
L:1/8
Q:1/8=240
K:A
ef|a2af ecef|a2a2 b2ef|a2af efaf|
e2c2 c2ef|e2c2 B2ef|eAB2 c2ef|e2c2 B2ef|
ecB2 A2ef|eABA cAef|eAB2 c2AB|eAcA BAef|
ecB2 A2EF|[e2A2][e2A2] [eB]cBA|[e2c2]BA [e2c2]EF|[e2A2][e2A2] [eB]cef|
ecB2 A2EF|[e2A2][e2A2] [eB]cBA|[e2c2]BA [e2c2]ef|e2c2 B2ef|
ecB2 A2cd|e2[e2c2] [f3d3]f|e2c4cd|e2f2 abaf|
e2c4cd|e2[e2c2] [f3d3]f|e2c4cB|A2F2 E3E|
F2A4cd|e2[e2c2] [f3d3]f|e2c4cd|e2f2 abaf|
efed c2cd|e2[e2c2] [f3d3]f|e2c4cB|A2F2 E3E|
F2A4cB|A2F2 E3E|e2c4cB|A2F2 E3E|
F2A4cB|F2A2 A4|
